packages/symbols/svgs/solid/meh-solid.svg

<svg width="16" height="16" viewBox="0 0 16 16" xmlns="http://www.w3.org/2000/svg"><g clip-path="url(#a)"><path d="M8 0C3.6 0 0 3.6 0 8s3.6 8 8 8 8-3.6 8-8-3.6-8-8-8ZM6 5c.6 0 1 .4 1 1s-.4 1-1 1-1-.4-1-1 .4-1 1-1Zm5 6H5V9h6v2Zm-1-4c-.6 0-1-.4-1-1s.4-1 1-1 1 .4 1 1-.4 1-1 1Z"/></g><defs><clipPath id="a"><path fill="#fff" d="M0 0h16v16H0z"/></clipPath></defs></svg>

<svg width="16" height="16" viewBox="0 0 16 16" fill="none" xmlns="http://www.w3.org/2000/svg">
<g clip-path="url(#clip0_219_2017)">
<path d="M8 0C3.6 0 0 3.6 0 8C0 12.4 3.6 16 8 16C12.4 16 16 12.4 16 8C16 3.6 12.4 0 8 0ZM6 5C6.6 5 7 5.4 7 6C7 6.6 6.6 7 6 7C5.4 7 5 6.6 5 6C5 5.4 5.4 5 6 5ZM11 11H5V9H11V11ZM10 7C9.4 7 9 6.6 9 6C9 5.4 9.4 5 10 5C10.6 5 11 5.4 11 6C11 6.6 10.6 7 10 7Z" fill="black"/>
</g>
<defs>
<clipPath id="clip0_219_2017">
<rect width="16" height="16" fill="white"/>
</clipPath>
</defs>
</svg>
